dist/svgs/crypto-icons/icons/edg.svg

<?xml version="1.0" encoding="UTF-8" standalone="yes"?>
<svg xmlns="http://www.w3.org/2000/svg" xmlns:xlink="http://www.w3.org/1999/xlink" width="432px" height="510.66666666666663px" viewBox="0 0 324 383" version="1.1">
  <g id="surface1">
    <path style=" stroke:none;fill-rule:evenodd;fill:rgb(0%,0%,0%);fill-opacity:1;" d="M 227.835938 383 L 33.117188 383 C 23.277344 383 15.296875 379.941406 9.175781 373.824219 C 3.058594 367.707031 0 359.726562 0 349.886719 L 0 84.976562 C 0.265625 77.796875 2.925781 71.347656 7.980469 65.628906 C 13.035156 59.910156 19.019531 56.785156 25.9375 56.253906 C 31.789062 55.457031 37.574219 55.121094 43.292969 55.253906 C 49.011719 55.386719 54.929688 55.457031 61.050781 55.457031 L 65.039062 55.457031 L 65.039062 32.714844 C 65.039062 25.265625 67.234375 18.617188 71.625 12.765625 C 76.011719 6.914062 81.929688 3.058594 89.378906 1.195312 C 90.175781 0.929688 90.976562 0.730469 91.773438 0.597656 C 92.570312 0.464844 93.371094 0.265625 94.167969 0 L 294.871094 0 C 296.46875 0.265625 297.929688 0.597656 299.261719 0.996094 C 300.589844 1.394531 302.054688 1.863281 303.648438 2.394531 C 310.035156 5.054688 315.023438 9.109375 318.613281 14.5625 C 322.203125 20.015625 324 26.464844 324 33.910156 L 324 296.027344 C 323.734375 304.007812 321.140625 310.988281 316.21875 316.972656 C 311.296875 322.957031 304.847656 326.214844 296.867188 326.746094 C 291.585938 327.542969 286.246094 327.875 280.90625 327.746094 C 275.585938 327.613281 270.398438 327.542969 265.34375 327.542969 L 259.757812 327.542969 L 259.757812 351.882812 C 259.492188 357.199219 258.097656 362.054688 255.570312 366.441406 C 253.042969 370.832031 249.515625 374.488281 244.996094 377.414062 C 241.804688 379.277344 238.878906 380.605469 236.214844 381.402344 C 233.554688 382.203125 230.761719 382.734375 227.835938 383 Z M 20.75 219.425781 L 20.75 349.089844 C 20.75 353.609375 21.8125 356.867188 23.941406 358.863281 C 26.070312 360.859375 29.261719 361.855469 33.515625 361.855469 L 224.644531 361.855469 C 229.167969 361.855469 232.425781 360.859375 234.421875 358.863281 C 236.417969 356.867188 237.414062 353.609375 237.414062 349.089844 L 237.414062 89.367188 C 237.414062 85.644531 236.351562 82.71875 234.222656 80.589844 C 232.09375 78.460938 229.035156 77.398438 225.042969 77.398438 L 33.117188 77.398438 C 29.128906 77.398438 26.070312 78.460938 23.941406 80.589844 C 21.8125 82.71875 20.75 85.644531 20.75 89.367188 Z M 258.960938 306.398438 L 293.675781 306.398438 C 296.335938 306.398438 298.597656 305.335938 300.457031 303.207031 C 302.320312 301.082031 303.25 298.554688 303.25 295.628906 L 303.25 32.714844 C 303.25 29.523438 302.1875 26.863281 300.058594 24.734375 C 297.929688 22.609375 295.269531 21.542969 292.078125 21.542969 L 98.957031 21.542969 C 94.964844 21.542969 91.90625 22.609375 89.777344 24.734375 C 87.648438 26.863281 86.585938 29.921875 86.585938 33.910156 L 86.585938 55.457031 L 225.84375 55.457031 C 235.417969 55.457031 243.332031 58.582031 249.582031 64.832031 C 255.835938 71.082031 258.960938 78.992188 258.960938 88.570312 Z M 129.28125 307.597656 C 127.152344 307.597656 125.289062 307.132812 123.695312 306.199219 C 122.097656 305.269531 120.769531 303.875 119.703125 302.011719 C 112.835938 290.652344 105.984375 279.28125 99.15625 267.902344 C 92.371094 256.597656 85.390625 245.226562 78.207031 233.789062 C 77.675781 232.460938 77.011719 231.128906 76.210938 229.800781 L 73.816406 225.808594 C 72.222656 223.683594 71.492188 221.488281 71.625 219.226562 C 71.757812 216.964844 72.488281 214.507812 73.816406 211.847656 C 79.402344 203.335938 84.722656 194.757812 89.777344 186.113281 C 94.839844 177.460938 100.027344 168.882812 105.339844 160.382812 C 107.734375 156.125 110.128906 152.003906 112.523438 148.011719 L 119.703125 136.042969 L 129.082031 130.460938 C 135.332031 126.734375 138.457031 128.597656 138.457031 136.042969 C 146.167969 148.535156 153.746094 161.101562 161.203125 173.746094 C 168.621094 186.332031 176.070312 198.898438 183.546875 211.449219 C 185.144531 213.839844 185.941406 216.300781 185.941406 218.828125 C 185.941406 221.355469 185.144531 223.949219 183.546875 226.609375 C 176.128906 239.058594 168.679688 251.496094 161.203125 263.910156 C 153.6875 276.386719 146.105469 288.820312 138.457031 301.214844 C 137.660156 303.074219 136.53125 304.539062 135.066406 305.601562 C 133.601562 306.667969 131.675781 307.332031 129.28125 307.597656 Z M 129.28125 161.976562 C 129.015625 162.773438 128.75 163.242188 128.484375 163.375 C 128.214844 163.507812 128.082031 163.707031 128.082031 163.972656 C 122.777344 172.996094 117.386719 181.972656 111.921875 190.902344 C 106.613281 199.578125 101.359375 208.289062 96.164062 217.035156 C 95.894531 217.300781 95.832031 217.898438 95.964844 218.828125 C 96.097656 219.757812 96.164062 220.492188 96.164062 221.023438 C 100.761719 228.597656 105.351562 236.175781 109.929688 243.761719 C 114.566406 251.449219 119.15625 259.160156 123.695312 266.902344 C 124.757812 268.5 125.757812 269.960938 126.6875 271.292969 C 127.617188 272.621094 128.484375 274.085938 129.28125 275.679688 C 129.8125 275.148438 130.210938 274.683594 130.476562 274.285156 C 130.742188 273.886719 131.007812 273.285156 131.277344 272.488281 C 136.394531 263.871094 141.582031 255.292969 146.835938 246.753906 C 152.128906 238.160156 157.449219 229.582031 162.796875 221.023438 C 163.0625 220.226562 163.195312 219.425781 163.195312 218.628906 C 163.195312 217.832031 163.0625 217.300781 162.796875 217.035156 C 159.109375 211.242188 155.519531 205.390625 152.023438 199.480469 L 141.648438 181.925781 C 139.789062 178.734375 137.859375 175.542969 135.863281 172.351562 C 133.871094 169.160156 131.675781 165.699219 129.28125 161.976562 Z M 193.921875 324.753906 L 193.921875 317.171875 C 193.921875 313.980469 194.917969 311.386719 196.914062 309.390625 C 198.910156 307.398438 201.503906 306.398438 204.695312 306.398438 C 207.621094 306.398438 210.082031 307.398438 212.078125 309.390625 C 214.070312 311.386719 215.203125 313.847656 215.46875 316.773438 L 215.46875 332.730469 L 212.277344 339.714844 C 210.148438 344.367188 207.621094 345.363281 204.695312 342.707031 C 201.769531 340.046875 199.308594 339.046875 197.3125 339.714844 C 195.316406 340.378906 194.1875 338.050781 193.921875 332.730469 Z M 64.242188 112.90625 L 64.242188 122.082031 C 63.976562 124.742188 62.84375 127 60.851562 128.863281 C 58.855469 130.726562 56.660156 131.65625 54.265625 131.65625 C 51.339844 131.65625 48.878906 130.726562 46.882812 128.863281 C 44.890625 127 43.625 124.742188 43.09375 122.082031 L 43.09375 104.128906 L 46.484375 97.144531 C 48.746094 92.492188 51.339844 91.628906 54.265625 94.554688 C 56.660156 94.554688 58.921875 95.550781 61.050781 97.546875 C 63.175781 99.539062 64.242188 101.867188 64.242188 104.527344 C 64.507812 105.855469 64.574219 107.253906 64.441406 108.714844 C 64.308594 110.179688 64.242188 111.574219 64.242188 112.90625 Z M 64.242188 112.90625 "/>
  </g>
</svg>

<svg xmlns="http://www.w3.org/2000/svg" viewBox="0 0 324 383"><path fill-rule="evenodd" d="M227.836 383H33.117c-9.84 0-17.82-3.059-23.941-9.176C3.059 367.707 0 359.727 0 349.887V84.977c.266-7.18 2.926-13.63 7.98-19.348 5.055-5.719 11.04-8.844 17.957-9.375 5.852-.797 11.637-1.133 17.356-1 5.719.133 11.637.203 17.758.203h3.988V32.715c0-7.45 2.195-14.098 6.586-19.95 4.387-5.85 10.305-9.706 17.754-11.57a15.779 15.779 0 012.394-.597A15.779 15.779 0 0094.168 0h200.703c1.598.266 3.059.598 4.39.996 1.329.399 2.794.867 4.387 1.399 6.387 2.66 11.375 6.714 14.965 12.168C322.203 20.015 324 26.465 324 33.91v262.117c-.266 7.98-2.86 14.961-7.781 20.946-4.922 5.984-11.371 9.242-19.352 9.773a92.075 92.075 0 01-15.96 1 624.224 624.224 0 00-15.563-.203h-5.586v24.34c-.266 5.316-1.66 10.172-4.188 14.558-2.527 4.391-6.054 8.047-10.574 10.973-3.191 1.863-6.117 3.191-8.781 3.988-2.66.801-5.453 1.332-8.38 1.598zM20.75 219.426V349.09c0 4.52 1.063 7.777 3.191 9.773 2.13 1.996 5.32 2.992 9.575 2.992h191.129c4.523 0 7.78-.996 9.777-2.992 1.996-1.996 2.992-5.254 2.992-9.773V89.367c0-3.722-1.062-6.648-3.191-8.777-2.13-2.13-5.188-3.192-9.18-3.192H33.117c-3.988 0-7.047 1.063-9.176 3.192-2.128 2.129-3.191 5.055-3.191 8.777zm238.21 86.972h34.716c2.66 0 4.922-1.062 6.781-3.191 1.863-2.125 2.793-4.652 2.793-7.578V32.715c0-3.192-1.063-5.852-3.191-7.98-2.13-2.126-4.79-3.192-7.98-3.192H98.956c-3.992 0-7.05 1.066-9.18 3.191-2.129 2.13-3.191 5.188-3.191 9.176v21.547h139.258c9.574 0 17.488 3.125 23.738 9.375 6.254 6.25 9.379 14.16 9.379 23.738zm-129.679 1.2c-2.129 0-3.992-.465-5.586-1.399-1.597-.93-2.925-2.324-3.992-4.187-6.867-11.36-13.719-22.73-20.547-34.11a1978.297 1978.297 0 00-20.949-34.113 27.542 27.542 0 00-1.996-3.988l-2.395-3.992c-1.593-2.125-2.324-4.32-2.191-6.582.133-2.262.863-4.72 2.191-7.38a586.259 586.259 0 0015.961-25.734c5.063-8.652 10.25-17.23 15.563-25.73a511.37 511.37 0 017.183-12.371l7.18-11.969 9.379-5.582c6.25-3.727 9.375-1.863 9.375 5.582a2182.75 2182.75 0 0122.746 37.703 9370 9370 0 0022.344 37.703c1.598 2.39 2.394 4.852 2.394 7.38 0 2.526-.796 5.12-2.394 7.78a9222.583 9222.583 0 01-22.344 37.301 4076.498 4076.498 0 01-22.746 37.305c-.797 1.86-1.926 3.324-3.39 4.387-1.465 1.066-3.391 1.73-5.786 1.996zm0-145.621c-.265.796-.531 1.265-.797 1.398-.27.133-.402.332-.402.598-5.305 9.023-10.695 18-16.16 26.93a2328.383 2328.383 0 00-15.758 26.132c-.27.266-.332.863-.2 1.793.134.93.2 1.664.2 2.195a10327.3 10327.3 0 0113.766 22.739 2159.863 2159.863 0 0113.765 23.14 235.81 235.81 0 002.993 4.391 34.722 34.722 0 012.593 4.387c.531-.532.93-.996 1.196-1.395.265-.398.53-1 .8-1.797a1914.939 1914.939 0 0115.559-25.734 4701.208 4701.208 0 0115.96-25.73 7.544 7.544 0 00.4-2.395c0-.797-.133-1.328-.4-1.594a630.128 630.128 0 01-10.773-17.555l-10.375-17.554a356.476 356.476 0 00-5.785-9.574 910.96 910.96 0 00-6.582-10.375zm64.64 162.777v-7.582c0-3.192.997-5.785 2.993-7.781 1.996-1.993 4.59-2.993 7.781-2.993 2.926 0 5.387 1 7.383 2.993 1.992 1.996 3.125 4.457 3.39 7.382v15.957l-3.19 6.985c-2.13 4.652-4.657 5.648-7.583 2.992-2.925-2.66-5.386-3.66-7.382-2.992-1.997.664-3.125-1.664-3.391-6.985zM64.243 112.906v9.176c-.265 2.66-1.398 4.918-3.39 6.781-1.997 1.864-4.192 2.793-6.586 2.793-2.926 0-5.387-.93-7.383-2.793-1.992-1.863-3.258-4.12-3.79-6.781v-17.953l3.391-6.984c2.262-4.653 4.856-5.516 7.782-2.59 2.394 0 4.656.996 6.785 2.992 2.125 1.992 3.191 4.32 3.191 6.98a14.56 14.56 0 01.2 4.188c-.133 1.465-.2 2.86-.2 4.191zm0 0"/></svg>
